/* XPM */
static char * kindcoin32_xpm[] = {
"32 32 78 1",
"  c None",
"! c #FFFFFF",
"# c #FFFFFD",
"$ c #FEFEFD",
"% c #02DAE9",
"& c #9FA8A5",
"( c #959693",
") c #7D8583",
"* c #14909B",
"+ c #787274",
", c #5A6A6B",
"- c #6A5162",
". c #4D575B",
"/ c #0E6D76",
"0 c #235F66",
"1 c #335054",
"2 c #185259",
"3 c #E43D84",
"4 c #903B68",
"5 c #6A455F",
"6 c #663B55",
"7 c #4F3E4E",
"8 c #34404A",
"9 c #1F4049",
": c #094149",
"; c #073F47",
"< c #083D46",
"= c #063E47",
"> c #043D45",
"? c #073B43",
"@ c #083942",
"A c #023A40",
"B c #7F3355",
"C c #373037",
"D c #28292E",
"E c #2A1921",
"F c #193036",
"G c #17262A",
"H c #161B20",
"I c #111116",
"J c #092E36",
"K c #0A1D23",
"L c #0A1015",
"M c #090E14",
"N c #080D13",
"O c #080C12",
"P c #03353D",
"Q c #023339",
"R c #022E36",
"S c #032127",
"T c #03161D",
"U c #050E15",
"V c #070C13",
"W c #070C12",
"X c #060C12",
"Y c #070C11",
"Z c #060C10",
"[ c #0A0A0C",
"] c #070B10",
"^ c #060B11",
"_ c #060B10",
"` c #060A10",
"a c #060A0F",
"b c #06090E",
"c c #040A0F",
"d c #03080D",
"e c #08060A",
"f c #03060B",
"g c #070206",
"h c #020203",
"i c #020102",
"j c #00050A",
"k c #000107",
"l c #010101",
"m c #000101",
"n c #030003",
"o c #000004",
"p c #000000",
"                                ",
"            EC7777CE            ",
"         E6-.199FDC7-6E         ",
"        6-1>QQQRRSTd^D--        ",
"      E51AA<<<?@PJSKMjjC+D      ",
"     E-:A;;;;;<<@JJSLMLkI+C     ",
"    E-<>:;=>==;AAPJSTNNMd]+D    ",
"    5<A;=>?@?>;55@QJKMNWMdI+    ",
"   68Q<;=?PQ@A5334QJKLNWWMkC.   ",
"  I5R@<;>@QRRP5334QRSLNWWYMk,H  ",
"  78R@<;=?@Q64:5B@4BSLNWWYOjD.  ",
"  5SJ@<;=>PQ43388434TfOWWY]Zb,  ",
" E7SJP?<:A)&A433334S&+fLNY]No1D ",
" CCTJJ@APR&!&P7447S(!(pkcO^WkC8 ",
" 7DUSJJ<&&:&#,QAQS.#&I((IcWYjG1 ",
" 7EcKJS)##(1$&R@JT(!C)!!+mL^fH1 ",
" 7HcLKT)#!(1$&SJJU(!C+!#+oM^fH1 ",
" 7DdNLTK))S&!,ULMl7#&O)+]`_]jG1 ",
" CCjMNMUcj(!&d;//:p(!(po`_`]kF9 ",
" E7jMONNIf+&e/%%%%/i&+eLY``Yo1G ",
"  -_VWWONWde/%*:?*%/oj`__`a_d0  ",
"  6DjNWWWWMe/*K:2T*/eN__`a_kG1  ",
"  H-kMYWWWWWbg2%%/nbaZ_`acXn0K  ",
"   -CkN]]YYYUg/%%/nU_``acZoF2   ",
"    +IfN^]]]W]V//Ub^``ac^fL0    ",
"    E+afN____^annb^`aacZfb0K    ",
"     C+IoNY__`^VV_aac_ZoL0G     ",
"      D+Cok]O]]____Z`knF0K      ",
"        ,,DdokjffjkofG02        ",
"         G.,1CGHHGF101K         ",
"            D811119G            ",
"                                "
};
