/* XPM */
static char * kindcoin16_xpm[] = {
"16 16 77 1",
"  c None",
"! c #C0C6C0",
"# c #B4B8B2",
"$ c #AEA6A1",
"% c #8E9E9C",
"& c #0499A5",
"( c #008E9B",
") c #807D80",
"* c #3F6467",
"+ c #027F8A",
", c #05747F",
"- c #1A4350",
". c #AE3B71",
"/ c #873E68",
"0 c #413A44",
"1 c #3B394A",
"2 c #2B3E4A",
"3 c #2C3639",
"4 c #1B3B44",
"5 c #083E47",
"6 c #053B43",
"7 c #003D44",
"8 c #00373C",
"9 c #8A315B",
": c #372E3B",
"; c #342931",
"< c #321F2C",
"= c #2F3234",
"> c #2C1D25",
"? c #2B1A23",
"@ c #1B3037",
"A c #1F282D",
"B c #20262C",
"C c #211D26",
"D c #1A1B22",
"E c #191E23",
"F c #0B2F36",
"G c #013038",
"H c #003138",
"I c #16282B",
"J c #042930",
"K c #162124",
"L c #131E23",
"M c #111E22",
"N c #0C1B20",
"O c #011B22",
"P c #22151B",
"Q c #111010",
"R c #0B141B",
"S c #0B0F15",
"T c #0A0E14",
"U c #0A0A0A",
"V c #070D13",
"W c #060B0E",
"X c #02090F",
"Y c #0D0609",
"Z c #09080B",
"[ c #080808",
"] c #06080C",
"^ c #03080A",
"_ c #03050B",
"` c #03040A",
"a c #01070D",
"b c #01060C",
"c c #02050B",
"d c #01050B",
"e c #01040A",
"f c #0A0305",
"g c #080306",
"h c #030004",
"i c #010205",
"j c #010101",
"k c #010001",
"l c #000207",
"m c #000101",
"n c #000003",
"o c #000000",
"       >>       ",
"    ;124@B:;    ",
"   1-778GOXD0   ",
"  0575622JRbS0  ",
" <-75F8..HRTbE= ",
" :H5589//.RTTd3 ",
" AG6H%)../%nXbB ",
"?CO*!%#8J#)!=iKA",
">Ca2#%#OX$)#=iLI",
" CXWl$*((*$oa_I ",
" ;aTTZ+,,+]TV`@ ",
" ;DbTVg&&gVV`NI ",
"  0SdV]FG]V`V4  ",
"   0Eedhhc`N4   ",
"    =3BLMK@@    ",
"       AI       "
};
