/* XPM */
static char * kindcoin128_xpm[] = {
"128 128 81 1",
"  c None",
"! c #FFFEF6",
"# c #FDF5EC",
"$ c #FCF3EA",
"% c #FBECE7",
"& c #E6E6DF",
"( c #5CD7DE",
") c #03CEDC",
"* c #03C7D6",
"+ c #E298B6",
", c #889899",
"- c #EB5090",
". c #875871",
"/ c #2D858D",
"0 c #284A51",
"1 c #143F49",
"2 c #064048",
"3 c #063F48",
"4 c #063F47",
"5 c #063F46",
"6 c #003F44",
"7 c #F63A84",
"8 c #C23973",
"9 c #24363F",
": c #093841",
"; c #073D46",
"< c #073941",
"= c #07343C",
"> c #073037",
"? c #063E47",
"@ c #063B44",
"A c #043C45",
"B c #063941",
"C c #033940",
"D c #04333A",
"E c #212027",
"F c #151B20",
"G c #0E1F26",
"H c #0F1318",
"I c #0A0F15",
"J c #082931",
"K c #08252D",
"L c #08171E",
"M c #081117",
"N c #080E14",
"O c #080D14",
"P c #080D13",
"Q c #080D12",
"R c #07232A",
"S c #07161C",
"T c #080C12",
"U c #070C13",
"V c #070C12",
"W c #070C11",
"X c #070B11",
"Y c #070B10",
"Z c #031E24",
"[ c #060B12",
"] c #060B11",
"^ c #060B10",
"_ c #020B11",
"` c #080A0F",
"a c #060A11",
"b c #060A10",
"c c #060A0F",
"d c #060A0E",
"e c #050A10",
"f c #050A0F",
"g c #020A10",
"h c #07090E",
"i c #05090F",
"j c #05090E",
"k c #06070B",
"l c #03080D",
"m c #040407",
"n c #040205",
"o c #000306",
"p c #000104",
"q c #060004",
"r c #000002",
"s c #000000",
"                                                                                                                                ",
"                                                                                                                                ",
"                                                                                                                                ",
"                                                                                                                                ",
"                                                            rrrrrrrp                                                            ",
"                                                    prssroleIHFFFFHIiorsssrp                                                    ",
"                                                psroNE9...-+++++++++++...9EXpssp                                                ",
"                                             rsoH9..+++++++-........++++++++,.9Hrsr                                             ",
"                                          proF0.++++-.009JRZZZZZZSSSMSLE90.,++++,0Frsp                                          ",
"                                        rpH9.+++..0=JJJ>==::9999>>JJKGGLMgooHE.,+&+,0Isr                                        ",
"                                      roE.-++.01>>D:111::=>>JJJKKKRRRGGGGFFFH_ooF0,+%+.Err                                      ",
"                                    poE.++-.1DD:111:==DD>>>>>>JJJJKRRZZLLSMMHHFFHloF.+%&,Err                                    ",
"                                  poE.++.0DD:111:==========>>>>>JJJKKRRZZLLMNVVNHFFHol9,%&,Eso                                  ",
"                                nrF.++.0DC111<BBB<<<<<::=====>>>>JJJKKRRZZLSMMPPV]NHFFlpE,%%.Fsm                                ",
"                               rg.-+.0DC11;BCB@BBBBBBB<<<:=====>>>JJJKKRZZZLSMNPPPPVVIFFepE,%&.or                               ",
"                             mpE8+-0DC11;C@@@@@@@@@@@BBBB<<:====>>>JJJKKRZZLLSMNPPPPPW^IFFlp9+%+Esm                             ",
"                            ol.++.<C11;@@;;@;;;;@@@@@@@@BBB<::===>>>JJJKKRZZLLMMPPPPPPQXbNFFoY.%&.pp                            ",
"                           pH.+-0D11;@@;;;;;;;;;;;;;;@@@@@BB<<:===>>>JJJKRRZZLSMNPPPPPQTQ]eIFHr9+%,Hr                           ",
"                         mpE-+.<C11@@;;;;;;;;;;;;;;;;;;;@@@BBB<:===>>>JJJKRRZLLSMPPPPPPQTVV]]HFlh.%+9sm                         ",
"                        mo9+-0D;1;@;;;;;;;???4?????;;;;;;;@@@BB<:===>>>JJJKRZZLLMNPPPPPQTTVVVeIFHr0&%0sk                        ",
"                       mo.+-0D11@@;;;;;?4444444444444?;;;;;@@@BB<:===>>>JJKRRZZLSMNPPPPPQTVVVV]]FFrE+$.rm                       ",
"                      mo.+-1C1;@;;;;;?44444444444444444?;;;;@@@BB<:===>>JJJKRZZLLMNPPPPPQTTVVVVVeHFoH+!.rm                      ",
"                     ml.+.=B1;@;;;;?444444444334444444444?;;;;@@BB<:==>>>JJKKRZZLSMPPPPPQTTVVVVVVeIFd`,!,pm                     ",
"                    mo.+.D@1@@;;;;?4444443?????????3444444?;;;;@@B<<:==>>>JJKRZZLLMNPPPPPQTVVVVVVP]QFIm,!,rk                    ",
"                   mo.+.D;1B@;;;;?444443?????????????344444?;;;@@@B<:===>>JJKKRZZLSMPPPPPQTTVVVVVVV^WFIo,!.sk                   ",
"                  mp.+.D:1B@@;;;?44443?????;;;;;;;?????34444?;;;@@BB<:==>>>JJKRZZLSMNPPPPQTTVVVVVVVW]^FIm,!.sk                  ",
"                  p9+8=:1B@@;;;?44443????;?AAAAAA??;????34444?;;;@@BB<===>>JJKRRZLLMNPPPPPQTVVVVVVVWWWbFI`+!0s                  ",
"                 pE+-1<1BB@;;;?4444???;;?AAAAAAAAAAA?;???34444;;;;@BB<:==>>JJJKRZZLSMPPPPPQTVVVVVVVVWW^bFhF&%9r                 ",
"                oH--0D1<B@@;;;44443?????AAAA@@@@@AAAA?;???3443A66A;@B<:==>>>JJKRZZLSMNPPPPQTTVVVVVVVWWWbTFo9%&Ho                ",
"               ml.+0>1:B@@;;;?4443????AAA@@BBBBBB@@@AA?A???3A610006C:B<===>>JJKRRZLSMNPPPPQTTVVVVVVVWWWXbPFr0!,pm               ",
"               p.+.J1:CB@@;;;4444???A?AA@@BBBBBBBBB@@AAA;??61.-77-80C<<:==>>JJKKRZLLMNPPPPPQTVVVVVVVWWWXXiHFs,!.s               ",
"              pE+->:1=<B@@;;?4443??;?AA@BBBBBBBBBBBBB@AA?;6087777777.C::==>>>JJKRZZLMMPPPPPQTVVVVVVVWWWXXXiFHh&$Er              ",
"             ml8+9>1=<BB@;;;?444????AA@BBBB======CBBBB@A;A187777777770C:===>>JJKRZZLSMPPPPPQTVVVVVVVWWWXXXXeFm9#+mm             ",
"             r.+.J1:=<B@@;;;4443??;?AA@BBB==DDDD===BBB@A;6.77777777778<<===>>JJKRZZLSMPPPPPQTVVVVVVVWWWXXXXbNFs.!.s             ",
"            pF-->::D:<B@@;;;4443???AA@BBB==DDDDDDD==BBB@A48777777777770D:==>>JJKRZZLSMNPPPPQTTVVVVVVWWWXXXXXiHH`&&Fo            ",
"            p.+0J1D=:<B@@;;?444????AA@BBB=DD>>>>>DD=BBB@C0777777777777.D:==>>JJKRRZLSMNPPPPQTTVVVVVVVWWXXXXX]eFo0!,s            ",
"           rE+.R1=D=:<B@@;;?444??;?A@BBB==D>>>J>>DD==BB<C0777777777777.D:==>>JJKRRZLSMNPPPPQTTVVVVVVVWWXXXXX]eIFr,$Er           ",
"           o.+9J1>==:BB@@;;?444??;AA@BBB=DD>>JJJ>>DD=<B@C17777777777770C:==>>JJKRRZLSMNPPPPQTTVVVVVVVWWXXXXX]]jFk9#,r           ",
"          rE+.Z1>>==:BB@@;;?444??;AA@BBB=DD>>JJJ>>D==B<B@68777777777771C:==>>JJKRRZLSMNPPPPQTTVVVVVVVWWXXXXX]]fQFr,#9r          ",
"          o.+9J:>>==:BB@@;;?444??;?A@BBB=DD>>JJJ>>D=D:C<@607777777777.C::=DD>>JKRRZLSMNPPPPQTTVVVVVVVWWXXXXX]]^jFjE&,r          ",
"         pE+.Z9>>>==:<B@@;;?444??;?AA@BB==DD>>>>>=DD.81C;;6.777777778<B::D.8>JJKRRZLSMNPPPPQTTVVVVVVVWWXXXXX]]^eQFr,&Er         ",
"         r.+9R9J>>==:<B@@;;?444????AA@BBB==DD>>>=D=.7781C;;6.777777.;@<:D0--89RKRRZLSMNPPPPQTTVVVVVVVWWXXXX]]]^^jFm9!,s         ",
"        pI--Z>JJ>>==:<B@@;;;4443??AAA@BBBC==DDD=D187777816;?61....06A@:D0-----9ZRZZLSMPPPPPQTVVVVVVVWWWXXXX]]]^^fIHm,&Ip        ",
"        r9+.Z9KJ>>===<B@@;;;4444??;?AA@BBBB====D98777777816;3666666;;:C.7777---9RGZLSMPPPPPQTVVVVVVVWWWXXXX]]]^^^fFr0!0s        ",
"        o8+GKJKJ>>===<BB@@;;?444???AAA@@BBBBC=:D.7777777781633;3;;;;CC.7777777--KZZLSMPPPPPQTVVVVVVVWWWXXXX]]]^^^iHPF&,r        ",
"       pF+.S>KJJ>>>==:BB@@;;?4444????AA@@BBB<<BB<8777777777066A?;A6C1.77777777-9ZGZLMNPPPPPQTVVVVVVVWWWXXXX]]]^^^^WFr,&Fr       ",
"       s0+0ZJRJJJ>>==:<B@@;;;?444???;?AA@@B@B<B<C<87777777778012510.777777777-9ZRZLSSNPPPPPTTVVVVVVVWWWXXXX]]^^^^^lFo0&0s       ",
"       p.+GRKRKJJ>>===<BB@@;;;4444???;?AAA;C;CB@@A@877777777777888777777777770ZKZGSF_IPPPPQTTVVVVVVVWWWXXXX]]^^^^^iHIH&,r       ",
"      pI+8MKRRKJJ>>>==:<B@@;;;?4444???;?A4@;&,D;A;A;8777777777777777777777770RKRR_.&9oIPPPQTTVVVVVVVWWXXXXX]]^^^^^bXFp,&Ip      ",
"      rE+.MEZRKJJJ>>==:<BB@@;;;44443???;4;C+!!,D4?;A187777777777777777777770RJRK_0$!&FlIPPQTVVVVVVVWWWXXXXX]]^^^^^biFr.&9s      ",
"      s.+ESGZRRKJJ>>>==:<B@@;;;;44444??3;C,!%$!,D2?;A;877777777777777777779KJKKM0##%!&HlIPQTVVVVVVVWWWXXXX]]]^^^^bblHk9&/s      ",
"      o8+HGGZZRKJJ>>>==:<BB@@;;;;4444433C,!%$$$!,D2???6.777777777777777789JJKJS0##$#%!+ITNTTVVVVVVVWWWXXXX]]^^^^^bbiIHI&,r      ",
"     pX+8lFLLZRRKJJ>>===:<BB@@;;;?44442D,!%$$$$$!/D2?346087777777777777.>JJJJZ0%#$#$#%!,pITVVVVVVVVWWWXXXX]]^^^^^bbbXFp,(]p     ",
"     rE+.lFSLZZRKJJJ>>===:<BB@@;;;;4442A0&!%$$$$##0C24436;.877777777789>>JJJZ9&!$###$!&9iNTVVVVVVVWWWXXXXX]]^^^^^bbbiFr/&Er     ",
"     s9+0lFMLZZRRKJJ>>>==:<BB@@@;;;;?442C1&!$#$$$#&0A244;;6;0.8888..9DD>>JJKZ+!%###$!&EoITTVVVVVVVWWWXXXX]]]^^^^^bbbiFp0&0s     ",
"     s.+EVFMLLZZRKJJJ>>===:<BB@@@;;;;3242C1&!$$$$%!+C2?;;;;@6CCCCCDDD=>>JJJS,!%###$!&9oIQIIQPIIVVVWWWXXXX]]^^^^^bbbbiHk9&0s     ",
"     r.+FMHNSLZZRRKJJ>>>===:<BB@;DDCADDA32C0&#$#$$%!,D2;;;@;@:<<<:===>>JJJZ0#$$$#$#%9pIIWppllppNPWWWXXXXX]]^^^^^bbbbiIQF&/s     ",
"     p.+IHINMSLZZRKKJJ>>>===:<<BD0,&&+,2C32D0$#$$$$#&0C;;@@@BB<<:===>>>JJKZ+!%$$#$!.rHIlP.,++,0obNWWXXXX]]]^^^^^bbbbiIHQ(,r     ",
"     o-+lFIPMMLLZZRKKJJ>>>===:=:,#!!!!!&0D;2D,!$$##%!,D;@@@BB<::===>>>JJJZ0!$$##$!,pIIoE&!!!!!!,QdQWXXXX]]]^^^^bbbbbfTHo,,o     ",
"     j+-lFNPNMSLZZRRKJJJ>>>===>,!$%$$$%!&0C;;@&!$#$$#&;@@BB<<:====>>>JJJKS,!%$#$#&FiIjE&!%%$$%%!,kQWXXXX]]^^^^^bbbbbcYFp,(l     ",
"    pI+.oFPPPNMSLZZRRKJJJ>>>=J.!%$$$#$$%!+C;3D/!$$$$$#/D@B<<:====>>>JJJKZ9&#$$$%!,rIIo,!%#$#$$$%!.rIXXX]]]^^^^^bbbbbccFr,(Np    ",
"    pH+.oFPPPPMMLLZZRRKJJJ>>>>&!$$$$$$$$$#0D;C1&#$$$%!,>:<:====>>>>JJJKKS0!$$$$$#9oHl9$$$$$$$$$%!+lTXXX]]^^^^^bbbbbccfFr,(Hr    ",
"    rF+.oFVPPPNMSLLZZRRKJJJ>J0%$$$$$$$$$%!,>;@D+!$$$$!,>:=====>>>>JJJKRKM.!%$$$#&FeHr.!%$$$$$$$$#%ElTXX]]^^^^^bbbbbccjFr/(Fr    ",
"    rF+.oFVPPPPNMSLLZZRRKJJJR0#$$##$$$$$$!,>::>,!$$$%!+D====>>>>JJJJKRRR_,!%$$%!+iNIr,!%$$$$$$$$$#9pIX]]]^^^^^bbbbbccjFr/(Fr    ",
"    rF+.oFVPPPPPNMSLLZZRRKKJR0#$$$$$$$$$%!,J::J,!%$$$!+>==>>>>>JJJKKRRZG_,!%$$$!+eNIr,!%$$$$$$$$$$9oPX]]^^^^^bbbbbcccjFr/(Fr    ",
"    rF+.oFVPPPPPPNMSLLZZRRKKK:&#$$$$$$$$%!,J:=J,!%$$$!,J=>>>>JJJJKKRRZZGg.!%$$$#&FeIp0!%$$$$$$$$#&HiT]]]^^^^^bbbbbcccjFr/(Fr    ",
"    pH+.oFVPPPPPPPNMSLLZZRRRJZ,!%#$$#$$$$%0>=D:&#$$$%!,R=>>JJJJKKRRRZZLLg0!$$$$$!0oIiF&#$$$$$$$%!,rIX]]^^^^^bbbbbbccffFr/(Hr    ",
"    pI+.oFTQPPPPPPPNMSLLZZZRKZ9&#%$$$$$%!,R==K0!%$$$$!.R>JJJJKKKRRZZZLLS_E&#$$$%!,pIIp.!%$$$$$%!&ElT]]]^^^^^bbbbbcccffFr,(Np    ",
"     l+-oFPTQPPPPPPPNMSLLLZZRKZ0%!$$%$#!,J>>>K+!$$$$#&1KJJJKKKRRRZZLLLMMIo,!%$$$#%ElINo,!#$$$$!&9pIX]]^^^^^bbbbbbccff^Hp,(l     ",
"     o++lFNTTQPPPPPPPNMMSLLZZZRS0+$!!#&,RJJ>Z.!$$$$%!,ZJJKKKRRRZZZLLSMMNIo0!%$$$%!,oNPTo.&#!!%,EpIX]]]^^^^^bbbbbcccffWHo(,o     ",
"     r.+OHI]TTQPPPPPPPNMMSLLLZZRZZ0..0JZJJJZ9&#$$$$$$0ZKKRRRRZZZLLLSMMNPPNj+!%$$$%!.rIVNpP900EpoIX]]]^^^^^bbbbbbccffjNHV(,r     ",
"     s.+FIH]TTTQPPPPPPPPNMMSLLLZGRZSSZRKKKRJ&!$#$$%!,SKRRRZZZZZLLLSMNPPPPIo0#$$$$$$!0rIVI]opplPPXX]]]^^^^^bbbbbcccffjIQF(/s     ",
"     s.+E_HeVVTTQPPPPPPPPNMMMSLLLZGGRRRRRRZ+!%$$#$!&KZRZZZZZLNXhkkmhNMPPPPIp,!%$$$$#$0rIWQNIIQXXX]]]^^^^^bbbbbbccffflHk9(0s     ",
"     s9+0lFeVVVTTQQPPPPPPPPNMMMSLLLLZZZZZS,!%$$$$#$0SGZZZZMTG20///2JhqPNPPNTT+!%#$$$#%9rNWWXXXXX]]]^^^^^^bbbbbcccffflHn0(9s     ",
"     rE+.oF]VVVVTTQQPPPPPPPPPNMMMSSLLLLLS,!%$$$$$!._GLLLSX=/*))))))*/2XkMQTIlE&!$#$$%#&9lQXXXXXX]]^^^^^^bbbbbbccffffjFr/(Gr     ",
"     pX+,oFPVVVVVTTTQPPPPPPPPPPNNMMMSSLg.!%$$$$%!,_LLLLTL/*))*******))*=qNPXIo9%#$#$#%!,pIXXXXX]]]^^^^^bbbbbbcccffff^Hp,(^p     ",
"      p,+IHI]VVVVVVTTQQPPPPPPPPPPPNNMMMMF+!%##%!,_SSMSk=*)************))0mXNVIp0$#$#%!+HcTXXXX]]]^^^^^^bbbbbcccffffjIHP(/r      ",
"      s.+E_HeVVVVVVVTTTQQPPPPPPPPPPPPONMlF&!%%!,eMMMMq2*)**************))/YhNXIr0$#%!&FmPXXXX]]]^^^^^^bbbbbbccffffflHkJ(0s      ",
"      s9+.oF]VVVVVVVVTTTQQPPPPPPPPPPPPPPIoE&#!+TXINNq2))*************))**)/NhNVIr0$!&EoIXXXXX]]]^^^^^bbbbbbcccffffflFr0(9s      ",
"      pI+,oFPVVVVVVVVVVVTTTQQPPPPPPPPPPPPIo9$+`iIPNq0)***************)*))*)/NhNVIr0&9pIXXXXX]]]^^^^^^bbbbbcccfffffibFr/(Np      ",
"       r,+HIH]VVVVVVVVVVVTTTQQQPPPPPPPPPPPIo9FlIPMq0)********)))*)))***)***)/NhNWNlHlPXXXXX]]]^^^^^^bbbbbbccfffffflIIM(/r       ",
"       s0&0oFeVVVVVVVVVVVVVVTTTQQQPPPPPPPPPIl]IPMq2)*******)*/2>>@0*))*)*))*)/NhNWQiQXXXXX]]]^^^^^^bbbbbbcccfffffilHn0(0s       ",
"       pF+,pFQWVVVVVVVVVVVVVVVTTTTTQQQQPPPPPINPNq2)*******)/ZqqkkmqV2*)*))))*)/khQXTXXXXX]]]^^^^^^bbbbbbcccfffffiibFr/(Lr       ",
"        p,+FIHbWVVVVVVVVVVVVVVVVVTTTTTQQQQQQQQNk2)**)***))2qhNNMMNMVqJ*)*))))*)/YXXXXXX]]]]^^^^^^^bbbbbcccffffffilHQS(/r        ",
"        s0%.oF^WWWVVVVVVVVVVVVVVVVVVVTTTTTTTTTNk2))*))*))2qNNNYkmkONMmS*)*)))))/`XXXXX]]]]^^^^^^bbbbbbbccffffffiilFr0(0s        ",
"        pI++mFI^WWWWVVVVVVVVVVVVVVVVVVVVVVVVVTVNq5*)**))2qMNhqM><RkmNMkM*)*)))0qYVXXX]]]]^^^^^^^bbbbbbcccfffffiilQHo,(Np        ",
"         s.%9lFiWWWWWWVVVVVVVVVVVVVVVVVVVVVVVVVVMq>*)))2qMNkS/**)*/<qONkM*)))2qPVXXX]]]]^^^^^^bbbbbbbcccfffffiiilHm9(/s         ",
"         pE&,pFPaXWWWWWWVVVVVVVVVVVVVVVVVVVVVVVVVMmR*)2qMNkR*))**)))2qNNkM*)@qNXXXX]]]^^^^^^^bbbbbbbcccfffffiiijYFr/(Gp         ",
"          r,&EdFiXXWWWWWWWVVVVVVVVVVVVVVVVVVVVVVVVNmZBqNUXM*)******))2nNNkLJqNXXX]]]]^^^^^^^bbbbbbbcccffffffiiilHkG(/r          ",
"          rE&,rFPbXXXXWWWWWWWVVVVVVVVVVVVVVVVVVVVVVNhmNVNq0)*))*)*)*)*`WXPhkNXXX]]]]^^^^^^^bbbbbbbcccffffffiiilYFs/(Jr          ",
"           r,%EjFiXXXXXWWWWWWWWVVVVVVVVVVVVVVVVVVVVVPNVPVX*)**)****)))=mPXVPXXX]]]^^^^^^^^bbbbbbbccccfffffiiiilHkJ(/r           ",
"           rE&,pFIbXXXXXXXWWWWWWWWWWWVVVVVVVVVVVVVVVVVVPkR*)*)*****)*)2qNXXX]]]]]^^^^^^^^bbbbbbbcccffffffiiiilQHr/(Kr           ",
"            s.%9oFbXXXXXXXXXWWWWWWWWWWWWWWWWWVWVWWVWWWWQkK*)))****))*)2qNXX]]]]^^^^^^^^^bbbbbbbcccffffffiiiijlFp1(/s            ",
"            oF&+`HHiXXXXXXXXXXXXXWWWWWWWWWWWWWWWWWWWWWWQ`M*)*****))**)2qO]]]]]^^^^^^^^bbbbbbbbcccffffffiiiijlHIl((So            ",
"             s.%.rFNe]]XXXXXXXXXXXXXXXWWWWWWWWWWWWWWWWWXNq/)*))*)))*)*ShV]]]^^^^^^^^^bbbbbbbbcccffffffiiiijlWFs/(0s             ",
"             mm+%9mFe]]]]XXXXXXXXXXXXXXXXXXXXXXXXXXXXXXXPkJ))*)*)))*)2qN]]^^^^^^^^^bbbbbbbbccccffffffiiiijjlFmJ(/mm             ",
"              rE&+hHHi]]]]]]XXXXXXXXXXXXXXXXXXXXXXXXXXXXXOq2))****))/k[]^^^^^^^^^^bbbbbbbbccccffffffiiiijjlHIl/(Gr              ",
"               s.%.sFHjX]]]]]]]XXXXXXXXXXXXXXXXXXXXXXXXXXXPq2*))))*/hcW^^^^^^^^^bbbbbbbbbccccffffffiiiijhlIFs/(0s               ",
"               mp,%0rFQf^^^]]]]]]]]]XXXXXXXXXXXXXXXXXXXXX]]UqM2//2Zq^W^^^^^^^^bbbbbbbbbccccfffffffiiiijjlWFs0(/pm               ",
"                mH+&EoFYf^^^^^]]]]]]]]]]]]]]]X]X]]]]]]]]]]]]UcqqqqkN^^^^^^^^^bbbbbbbbbccccfffffffiiiijjldFnK((Mo                ",
"                 r9&&HhFef^^^^^^^]]]]]]]]]]]]]]]]]]]]]]]]]]]^WVNNNW^^^^^^^bbbbbbbbbbcccccfffffffiiiijjjjFkM((Jr                 ",
"                  s0$+`QFf^^^^^^^^^^^^^^^^]]]]]]]]]^^^^^^^^^^^^^^^^^^^^^bbbbbbbbbbcccccfffffffiiiiijjjlFTl/(1s                  ",
"                   s.!,mIFfe^^^^^^^^^^^^^^^^^^^^^^^^^^^^^^^^^^^^^^^^^^bbbbbbbbbbccccccfffffffiiiiijjjlFQm/(0s                   ",
"                   kr.!,oIFff^^^^^^^^^^^^^^^^^^^^^^^^^^^^^^^^^^^^^bbbbbbbbbbbbcccccffffffffiiiiijjjljFQo/(/rm                   ",
"                    kr,!,mTFYi^^^^^^^^^^^^^^^^^^^^^^^^^^^^^^^^bbbbbbbbbbbbbbbcccccffffffffiiiiijjcldFTm/(/rm                    ",
"                     mp,!,`jFQlbbbb^^^^^^^^^^^^^^^^^^^^^^^bbbbbbbbbbbbbbbbccccccffffffffiiiiijjjjlTFkl/(/pm                     ",
"                      mr.!+FoFIlbbbbbbbbbbbbbbbbbbbbbbbbbbbbbbbbbbbbbbbbccccccfffffffffiiiiijjjjlIFnM/(/rm                      ",
"                       ks.!&9sFHiibbbbbbbbbbbbbbbbbbbbbbbbbbbbbbbbbbbccccccffffffffffiiiiiijjjllHFsK((0rm                       ",
"                        ks0$$0sIFPlbbbbbbbbbbbbbbbbbbbbbbbbbbbbbbccccccccffffffffffiiiiiijjjjlTFIs0((1sm                        ",
"                         ks9&!,hoFHiibbbbbbbbbbbbbbbbbbbbbbbbbccccccccffffffffffffiiiiijjjcllHFml/((Jsm                         ",
"                           rH,!&9sHFIlibbbbbbbbbbbbbbbbccccccccccccffffffffffffiiiiiijjjjllQFIsJ/(/Mr                           ",
"                            pr.$!.hpFFQlcccccccccccccccccccccccffffffffffffffiiiiiiijjjjlYHHpl/((0po                            ",
"                             msE+!&0rmFHTljcccccccccccccccffffffffffffffffiiiiiiijjjjllYHFkr1((/Gsm                             ",
"                               ro.&!,9slFHIjlfccfffffffffffffffffffffffiiiiiiiijjjjllQHFksJ/((0mr                               ",
"                                msF,$#,EroHFH^ljff^fffffffffffffffffiiiiiiiiijdjllcHFHmrK/((/Lsm                                ",
"                                  psE,#&,9orQFFI^jljffffffffffffiiiiiiiiiiijlllcIHFQro9/((/Kso                                  ",
"                                    rr9,&!,0FrpIFFHIYjjljjiiiiiiiiiiiilllllcIHFHIprS0,((/Jrr                                    ",
"                                      rsE,&!&,0HrrlIFFHHIPXbiilllljjcYQIHHFHIkrrS0/(((/Grr                                      ",
"                                        rsI0,&&&,.9NprpkTHHHFFFFFFFHHHHTkpsrNJ0/(((/0Nsr                                        ",
"                                          psrF0,&&&&,/09FVoprsssssrrro^F90/,((((/0Lrsp                                          ",
"                                             rsrI9.,(&&&&(,,,,/////,,(((((((/09Mrsr                                             ",
"                                                pssr^E00/,,((((((((((,,/09G^rssp                                                ",
"                                                    pssssrolNHFFFFHNlorsssrp                                                    ",
"                                                            prrrrrrp                                                            ",
"                                                                                                                                ",
"                                                                                                                                ",
"                                                                                                                                ",
"                                                                                                                                "
};
