/* XPM */
static char * kindcoin64_xpm[] = {
"64 64 81 1",
"  c None",
"! c #FFFFF9",
"# c #FDF8EF",
"$ c #F7EFE6",
"% c #E4E0D8",
"& c #BCB8B6",
"( c #5EAEB3",
") c #03D2E2",
"* c #03C2D1",
"+ c #959096",
", c #967283",
"- c #CB5389",
". c #87556F",
"/ c #3C9097",
"0 c #326D73",
"1 c #494C52",
"2 c #194C53",
"3 c #F93A85",
"4 c #B43B70",
"5 c #3D3945",
"6 c #153942",
"7 c #073E47",
"8 c #073C44",
"9 c #083740",
": c #07343D",
"; c #07323A",
"< c #063F47",
"= c #063E47",
"> c #013F43",
"? c #043D44",
"@ c #063A42",
"A c #023A41",
"B c #04373E",
"C c #02323A",
"D c #252930",
"E c #221B24",
"F c #0E1F25",
"G c #082B32",
"H c #08252D",
"I c #081920",
"J c #0B1015",
"K c #0C0E13",
"L c #090E13",
"M c #080F15",
"N c #080D14",
"O c #080D13",
"P c #080D12",
"Q c #052F36",
"R c #05242B",
"S c #051C23",
"T c #051016",
"U c #080C11",
"V c #070C12",
"W c #070C11",
"X c #070C10",
"Y c #070B11",
"Z c #070B10",
"[ c #060C12",
"] c #060B11",
"^ c #060B10",
"_ c #060B0F",
"` c #040B11",
"a c #080A10",
"b c #060A11",
"c c #060A10",
"d c #060A0F",
"e c #050A10",
"f c #050A0F",
"g c #020A0E",
"h c #05090F",
"i c #07060B",
"j c #02060C",
"k c #010408",
"l c #060207",
"m c #010306",
"n c #010101",
"o c #010100",
"p c #000205",
"q c #040001",
"r c #000003",
"s c #000000",
"                                                                ",
"                                                                ",
"                           skKEEEEKks                           ",
"                       pE1.,,,,,,,,,,.1Es                       ",
"                    sE.--,.166GHHFFD51,++.Ds                    ",
"                  s5,-.5:CQCQQGGGHSSTgjJD.++5s                  ",
"                sD-,19CB999::;;QGHHRSIJJ`kK1++5s                ",
"               a.-1AA888@@@@99:;QGGHRIINLJJjj1&,K               ",
"              D-.@A788888888@@9:;;GGHSITLOOLJjZ.&5              ",
"            s1-1A7887777777888@9:;;GHRSIMOOOYLJr5&.s            ",
"           s.-6A7877<<<<<<<7788@9:;QGHRITOOOPV]JjJ&,s           ",
"          s.,A7877<<<<==<<<<=788@9:;QGHSIMOOPUV]LPk++s          ",
"         s.,B7877<<========<<<778@9;;GHRITOOOUVVVPJp++s         ",
"         1-B8877<<====???===<77?A89:;QHRSINOOPVVVVWJk&.         ",
"        D-6@@87<<===??@@@??=7<>22AA9;QGHSIMOOPVVVVWUUJ&5        ",
"       K-5B9877<<==?@@99@@@8=7.3346B:;GHRIMOOPUVVVWWLj5&K       ",
"      s..Q9@87<<==?@@B:::9@8>.33334B:;GHRITOOOUVVVWWYJr,+s      ",
"      D-Q9B@87<<==?@B;;Q;:9A63333335C;QHRSTOOOUVVVWWY]Jh&5      ",
"     n-1Q:9@87<<=?@9:;QGQ:9A63333335C;QHRSTOOOUVVVWWYYOk1&s     ",
"     5,G;:9@87<<=?@9:;GGQCBA?43333-8CCQGRSTOOOUVVVWWYY]Jk+5     ",
"    s41R;:9@87<<==?@B;QQQ5-1A2433-5B645RRSTOOOUVVVWWYY]Pm1+s    ",
"    E-HGQ;9@87<<==?@9::C13331A7116A6-331SITOOOUVVVWWYY]^PU&D    ",
"    ..SGQ;9@87=<==??@@9B.33331>>>>5-3334RIJOOPUVVVWWYY]^Lr..    ",
"   p-5RHQ;:9@87<<==?7B@BA.33334..43333-DSI`JOPVVVVWYYY]^[jD+p   ",
"   E-SRHG;:9@87=<<=7C0&2C>433333333334DSH&1sJPVVVVWYY]]^^UU+D   ",
"   5.TFHGQ;:9@87<<7A0%!%2A<.333333334;RH&!$1jLVVVVWYY]^^^Lr+1   ",
"   .1TSRHG;:9@88777B+!$!%78>143333-1QHS&!$!+kJJOVWWYY]^^^Vr1/   ",
"  s,5TISHGQ;:9@7ACCA7&!$!&B7>?5115:QGS+!$!&JjrrhLWWYY]^^c]k5(s  ",
"  k-E[ISRHGQ;:@C2//2C8&!$!/C78ABCCQ;S1#$!&JrD.1FkLYY]]^^cciE(k  ",
"  K,FOMISRHGQ:Q2%!!$0Q2$##%@@@99:;GGS&!$$5s1$!!%DkLY]^^^ccdI(J  ",
"  E,JLOTISHHG;Q&!$$#%2Q+!$#0C9:;;QGS6$$!&rE%!$$!&jUY]^^cccZJ(F  ",
"  E,JLONIISHGR2$###$#0R0!$!0G9;QGGHI1#$!.o1!$#$#$DjO]^^ccdXU(F  ",
"  E,JLOOMIISHR6$#$$$#0R0!$!0R;QGGHHT1#$!.o5#$$$#$EjV^^^ccdXU(F  ",
"  E,JLOOOMIISHS&!$$!%6R+!$#1RGGHHSSTD$$!&pJ&!$$!+pL]^^cccd^J(F  ",
"  K,IPPOOOMTISSG&##&1S6%##%GHHHRRSIJj&!$#5sD&$$&JhV^^^ccdfdI(J  ",
"  k,E`UPOOONMIISS55HSR&!$!,IHRITNOMJk1!$#%ErcDDkhV^^^cccdfiF(k  ",
"  s,5gOUPOOOOMTIITISI+!$!&IRIMG<<GilJp+!$!&J_kkLU]^^^ccddek6/s  ",
"   .1kNVUPOOOOOMMII`+!$#%DIL;/*))**7lUZ&!$!&mJLY]^^^cccdf[r10   ",
"   1,kJVVVUPOOOOONJh1$!%5gi2*)****))0ihJ&!$1jLY]^^^cccdffPr/2   ",
"   E+LLVVVVUUPOOOOOJs1%5mi2)**))))**)0ijI&1sLY]]^^^ccddffYa/F   ",
"   p+DgUVVVVVUUPOOOOLhFjl2)**)*00*))*)/ijfjOY]]^^^cccdffeiD/p   ",
"    ..kKVVVVVVVUUUPPOL[i2)**)0Mqqd2))*)/dVPY]]^^^cccdfff[q00    ",
"    E+PLWVVVVVVVVVVVUUMi2)))2qlRHiq8*))0iUY]]^^^cccddffhYa/F    ",
"    s+1kPWWVVVVVVVVVVVVNq<*2qT0**/Rq@*2qYY]]^^^cccddfffel2/s    ",
"     5+jJYWWWWVVVVVVVVVVNlIal0))*)*diIiV]]^^^^cccddfffhPl/6     ",
"     r+1kLYYWWWWWVVVVVVVVNdaI*)***)QiaO]]^^^^cccddfffh`l2/s     ",
"      5&dJYYYYYWWWWWWWWWWWOiS*)***);lN]^^^^^cccddfffhhPi/6      ",
"      s,.rJbYYYYYYYYWWWWWWYOl/)**)*]][^^^^ccccddfffhhOq0/s      ",
"       K&5jO]]]YYYYYYYYYYYYViI*))*Gl[^^^^ccccddfffhheiG(X       ",
"        5&JUW^]]]]]YYYYYYYY][ih:@Ol[^^^ccccddffffhhfaJ(6        ",
"         .&kLZ^^^^]]]]]]]]]]^[^lld[^^cccccddfffhhhhPl/0         ",
"         s,+rJW^^^^^^^^^^^^^^^^[[]ccccccddffffhhhfPq/0s         ",
"          s++kYLf^^^^^^^^^^^^^ccccccccdddffffhhheal//s          ",
"           s+&JkJccccccccccccccccccddddffffhhhhOiJ/0s           ",
"            s.&5sLUcccccccccccccddddfffffhhhhePqG(0s            ",
"              5&,hmLWdcccddddddddffffffhhhhfPli0(6              ",
"               K+&1mpUP^fdddfffffffffhhhh[Zll2(/`               ",
"                s5&+1UrjWP[efffffhhhe]WZiqa2//6s                ",
"                  s5+&.DUrrkjhc^cchimrraD0//6s                  ",
"                    sD.+++15EJKZaKJF61///0Fs                    ",
"                       sD1/(((((((((/02Fs                       ",
"                           skJFFFFJks                           ",
"                                                                ",
"                                                                "
};
